app/dist/common/images/nac-co-ltd.svg

<svg height="18" viewBox="0 0 18 18" width="18" xmlns="http://www.w3.org/2000/svg"><path d="m0 0h18v18h-18z" fill="#f0f3fa"/><path d="m13 11.24v-6.24h-2v3.73zm-8-4.53v6.29h2v-3.62zm0-.97 5.61 7.26h2.39v-.86l-5.72-7.14h-2.28z" fill="#231815"/></svg>

<!-- by TradingView --><svg width="18" height="18" viewBox="0 0 18 18" xmlns="http://www.w3.org/2000/svg"><path fill="#F0F3FA" d="M0 0h18v18H0z"/><path d="M13 11.24V5h-2v3.73l2 2.51ZM5 6.71V13h2V9.38L5 6.71Zm0-.97L10.61 13H13v-.86L7.28 5H5v.74Z" fill="#231815"/></svg>
